X:676
T:Mr. Stewart Nicholson
R:Reel
B:The Athole Collection
M:C|
L:1/8
K:E_
B|G<F E>G C<C ~F2|E/D/C/B,/ B,C/D/ E>GB>e|G>FE>G C<C ~F2|
E/D/C/B,/ C>D E2E:|
c|B>e ef/g/ f<c c>f|d>c Bc/d/ e/f/g/a/ b>e|B>e ef/g/ a<c c>f|
d>c B/c/d/B/ e2 E>c|B>e ef/g/ a<c c>f|d>c Bc/d/ e/f/g/a/ b>c|
B<e c>e B<cG<E|E/D/C/B,/ C>D E2D||

